X:1
T:Title
%%score { ( 1 3 ) | ( 2 4 ) }
L:1/8
M:4/4
K:C
V:1 treble nm="Grand Piano"
V:3 treble 
V:2 bass 
V:4 bass 
V:1
 z4 z2[Q:1/4=100] [EG]>[EG] | [Ec]>[Ec] [Ec]>[Ec] [Ec]>[Ec] [Ec]>[Ec] | [Ge]4 [Ec]2 [EG]>[EG] | %3
 A>A A>A c>c c>A | [EG]6 [EG]>[EG] | [Ec]>[Ec] [Ec]>[Ec] [Ec]>[Ec] [Ec]>[Ec] | %6
 [Ge]4 [Ec]2 [Gc]>[Gc] | [Fd]2 [Fd]2 c2 [DB]2 |[M:3/4] [Ec]6 |[M:1/4] G,>G, |[M:4/4] d6 [FG]2 | %11
 [CEc]>[FB] [Gc]>d e2 C>C | A6 c2 | B>c d>e d2 B,>B, | [Ge]6 [Ec]2 | %15
[M:9/8] A>AA- A/[Ac]/ [Af]2- [Af] [Af]2 |[M:4/4] e2 d>d c<c B2 |[M:3/4] [Ec]6 |] %18
V:2
 z4 z2 [C,C]>[C,C] | [C,G,]>[C,G,] [C,G,]>[C,G,] [C,G,]>[C,G,] [C,G,]>[C,G,] | %2
 [C,C]4 [C,G,]2 [C,C]>[C,C] | [F,CF]>[F,CF] [F,CF]>[F,CF] [F,A,F]>[F,A,F] [F,A,F]>[F,CF] | %4
 [C,C]6 [C,C]>[C,C] | [C,G,]>[C,G,] [C,G,]>[C,G,] [C,G,]>[C,G,] [C,G,]>[C,G,] | %6
 [C,C]4 [C,G,]2 [E,C]>[E,C] | [F,A,]2 [D,A,]2 [G,E]2 [G,,G,]2 |[M:3/4] [C,G,]6 |[M:1/4] z2 | %10
[M:4/4][K:treble] G6[K:bass] z2 | C,>[D,G,] [E,G,]>[K:treble][G,B,G] [CG]2 z2 | F6 F2 | %13
 [G,D]>[G,E] [G,B,G]>[G,CG] [G,B,G]2[K:bass] G,>G, | [C,C]>C, C,>C, C,2 [C,G,]>C, | %15
[M:9/8] [F,CF]>[F,CF][F,CF]- [F,CF]/[F,C]/ [F,C]2- [F,C] [F,C]2 | %16
[M:4/4][K:treble] [G,CG]2 [G,B,G]>[G,B,F] [G,E]<[G,E][K:bass] [G,D]2 |[M:3/4] [C,G,]6 |] %18
V:3
 x8 | x8 | x8 | x8 | x8 | x8 | x8 | x8 |[M:3/4] x6 |[M:1/4] x2 |[M:4/4] z z/ B,/ B,>B, B,2 B,>B, | %11
 x8 | z z/ C/ C>C C2 z z/ A,/ | x8 | z z/ C/ C>C C2 z z/ C/ |[M:9/8] x9 |[M:4/4] x8 |[M:3/4] x6 |] %18
V:4
 x8 | x8 | x8 | x8 | x8 | x8 | x8 | x8 |[M:3/4] x6 |[M:1/4] x2 | %10
[M:4/4][K:treble] [G,B,]>G, G,>G, G,2[K:bass] G,>G, | x7/2[K:treble] x9/2 | %12
 [F,C]>F, F,>F, F,2 [F,A,]>F, | x6[K:bass] x2 | x8 |[M:9/8] x9 |[M:4/4][K:treble] x6[K:bass] x2 | %17
[M:3/4] x6 |] %18

